images/logo.svg

<svg width="109" height="40" viewBox="0 0 109 40" fill="none" xmlns="http://www.w3.org/2000/svg">
<g clip-path="url(#clip0_538_138)">
<path d="M35.4951 0.5H2.9306C1.31207 0.5 0 1.83169 0 3.4744V36.5256C0 38.1683 1.31207 39.5 2.9306 39.5H35.4951C37.1136 39.5 38.4257 38.1683 38.4257 36.5256V3.4744C38.4257 1.83169 37.1136 0.5 35.4951 0.5Z" fill="white"/>
<path fill-rule="evenodd" clip-rule="evenodd" d="M27.9508 6.94789C26.2716 8.76581 24.6164 8.46147 22.4334 7.82439C22.0336 7.68236 21.5938 7.54845 21.178 7.39426C19.9226 6.93166 18.5833 6.34327 17.2679 6.11197C13.2058 5.39779 12.4702 9.76404 10.711 12.5315C9.66351 14.1546 7.40059 16.4149 5.58145 16.8977C4.84581 17.0925 4.40601 16.5812 4.94976 15.9766C5.25374 15.6615 5.57688 15.3661 5.91729 15.092C7.21667 14.0086 6.85684 12.8764 5.78536 12.71C5.27301 12.6583 4.75595 12.7339 4.27887 12.9305C3.80179 13.127 3.37905 13.4385 3.0472 13.838C2.71534 14.2376 2.48435 14.7132 2.37419 15.2236C2.26403 15.7341 2.27803 16.2641 2.41497 16.7679C2.67884 15.9157 3.7983 15.652 4.08617 14.7998C4.15335 14.6051 4.15945 14.394 4.1036 14.1957C4.04776 13.9973 3.93272 13.8213 3.77432 13.692C5.52148 12.5599 6.44504 13.5216 5.85332 14.2074C5.42952 14.6984 4.60592 15.2016 4.11815 15.7981C3.05466 17.0966 4.38203 18.809 6.68893 17.7621C6.6227 18.1889 6.61061 18.6225 6.65294 19.0525C6.7415 19.7436 6.64706 20.4463 6.37934 21.0882C6.11162 21.73 5.68028 22.2879 5.12967 22.7045C5.41819 24.0709 5.29276 25.494 4.76984 26.7867C4.92721 27.6033 5.38457 28.3286 6.04923 28.8156C6.59567 27.2204 6.82002 25.5299 6.70891 23.8448C8.55203 23.1712 11.4627 22.0512 11.7425 19.7869C11.8385 19.722 11.9704 19.6003 12.0064 19.5719C13.1349 18.6543 14.3654 17.8739 15.6726 17.2467C15.4354 17.0568 15.2255 16.8341 15.0489 16.5853C16.2963 17.0925 19.047 15.867 20.1465 15.3923C20.3224 16.2972 20.4823 17.198 19.5428 17.6728L19.4948 17.7255C19.381 18.004 19.3224 18.3026 19.3224 18.6041C19.3224 18.9056 19.381 19.2041 19.4948 19.4826L19.5988 19.4177C20.9461 18.6061 21.9576 17.8635 21.7298 16.1024L21.5818 13.0671L21.182 12.6613C20.7788 12.7704 20.3639 12.829 19.9466 12.8358C20.3924 12.7123 20.8292 12.5578 21.254 12.3732C21.9536 13.1361 22.4534 13.6799 22.8172 14.7106C23.6499 14.8594 24.5075 14.7476 25.2761 14.39L24.8483 9.92635C26.2716 9.65853 27.7509 8.72117 27.9508 6.94789ZM23.9087 13.9071C23.7176 12.8238 23.2394 11.8137 22.5254 10.9855C22.6536 11.4055 22.7117 11.8444 22.6973 12.284C22.0096 11.0179 20.5103 10.0684 20.5623 8.71711C20.4183 8.89755 20.3113 9.10535 20.2474 9.32832C20.1836 9.5513 20.1642 9.78496 20.1905 10.0156C19.0743 10.2786 17.9025 10.1349 16.8801 9.60984C16.9453 10.0505 17.1155 10.4684 17.3758 10.8272C16.993 10.7215 16.6499 10.5027 16.39 10.1985C16.1301 9.89424 15.9653 9.51842 15.9165 9.11884C15.3728 10.8759 16.6162 12.5964 17.9875 13.2254C18.88 13.6093 19.8689 13.6988 20.8142 13.481C19.019 14.743 15.3848 16.1998 13.4377 13.6474C13.4244 14.322 13.5975 14.9869 13.9375 15.5668C12.8705 16.1209 11.8908 16.8335 11.0309 17.6809C10.7622 17.3036 10.419 16.9871 10.0233 16.7517C11.0508 18.7806 9.91539 20.4889 9.31168 21.126C9.54512 20.598 9.66246 20.0247 9.65551 19.4461C9.19573 20.7568 7.53652 22.0431 6.38107 22.4408C7.22467 21.6292 7.51653 20.846 7.48055 19.5475C7.48055 18.8698 7.34061 18.1354 7.5845 17.4821C7.78829 16.9952 8.09386 16.5591 8.48007 16.2038C9.64528 15.262 10.6548 14.1373 11.4706 12.8724C11.4869 13.1851 11.4776 13.4986 11.4427 13.8097C12.6421 11.9147 12.766 8.80639 14.873 7.3415C15.2063 7.12312 15.5793 6.9747 15.97 6.90501C16.3607 6.83531 16.7613 6.84576 17.1479 6.93572C18.0294 7.11754 18.8926 7.38105 19.7267 7.72294L19.9426 7.80409C20.2744 7.93394 20.6023 8.0638 20.9221 8.18148C21.3419 8.33568 21.7737 8.4777 22.2015 8.61972H22.2295L22.4734 8.68871C22.638 8.9964 22.8661 9.26443 23.1421 9.47451C23.4181 9.6846 23.7355 9.8318 24.0726 9.90607L24.4485 13.8138C24.2744 13.8547 24.0982 13.8859 23.9207 13.9071H23.9087Z" fill="#B8860B"/>
<path d="M30.6445 11.0262L31.5001 11.8783L19.7976 23.3214L17.1509 20.6149L16.927 20.3917L16.4712 20.8218L4.54492 32.7397L5.61241 32.8493L16.891 21.6537L19.7137 24.5266L20.2454 24.0478L20.4853 23.8124L32.0958 12.4667L32.8594 13.2215L33.8789 10.0645L30.6445 11.0262Z" fill="#B8860B"/>
<path d="M17.4362 28.3286H15.793V33.2264H17.4362V28.3286Z" fill="#B8860B"/>
<path d="M20.7213 25.5249H19.0781V33.2267H20.7213V25.5249Z" fill="#B8860B"/>
<path d="M24.0124 23.4307H22.3691V33.2263H24.0124V23.4307Z" fill="#B8860B"/>
<path d="M14.1452 30.2397H12.502V33.2263H14.1452V30.2397Z" fill="#B8860B"/>
<path d="M27.3034 19.998H25.6602V33.2266H27.3034V19.998Z" fill="#B8860B"/>
<path d="M30.5885 16.9224H28.9453V33.2309H30.5885V16.9224Z" fill="#B8860B"/>
<path d="M33.8795 13.9028H32.2363V32.853H33.8795V13.9028Z" fill="#B8860B"/>
<path d="M57.937 16.5488C57.1489 17.2365 56.2363 17.7616 55.2503 18.0949C53.2098 18.7808 51.0058 18.7808 48.9653 18.0949C47.9899 17.7665 47.083 17.2574 46.2906 16.5934C45.5094 15.9223 44.8748 15.093 44.4274 14.1587C43.9468 13.1386 43.7073 12.0187 43.7278 10.8881C43.7073 9.76397 43.9512 8.65108 44.4394 7.64183C44.8992 6.71572 45.5479 5.89958 46.3425 5.2477C47.1401 4.59052 48.0512 4.08964 49.0293 3.77063C50.0296 3.43896 51.0754 3.2705 52.1278 3.27153C53.1602 3.26853 54.1872 3.4231 55.1743 3.73007C56.1327 4.01957 57.0338 4.47687 57.8371 5.08133L55.938 7.30503C55.3885 6.92608 54.7823 6.63969 54.1428 6.45694C53.4931 6.26561 52.8203 6.16727 52.1438 6.16478C51.4669 6.16249 50.7934 6.26092 50.1447 6.45694C49.5208 6.64206 48.9345 6.93889 48.4135 7.33344C47.9071 7.73057 47.4969 8.23995 47.2141 8.82266C46.9006 9.48685 46.7458 10.2167 46.7623 10.953C46.7442 11.6869 46.9034 12.4142 47.2261 13.0712C47.5256 13.6489 47.9475 14.152 48.4615 14.5442C48.9859 14.9405 49.5764 15.2374 50.2047 15.4207C50.8535 15.6162 51.5269 15.7146 52.2037 15.7129C53.2466 15.7187 54.2744 15.4607 55.1943 14.9622V12.6533H53.739L52.5396 9.95075H57.937V16.5488Z" fill="white"/>
<path d="M78.026 10.815C78.0448 11.9524 77.7996 13.0784 77.3104 14.1018C76.8532 15.0344 76.2139 15.8627 75.4313 16.5365C74.6357 17.2148 73.7216 17.7351 72.7365 18.0704C70.7003 18.7657 68.4958 18.7657 66.4595 18.0704C65.4822 17.7439 64.5736 17.2347 63.7808 16.569C62.9962 15.8992 62.3587 15.0698 61.9097 14.1343C61.4309 13.1135 61.1914 11.9941 61.21 10.8637C61.1908 9.73919 61.4361 8.62628 61.9257 7.61738C62.3831 6.69204 63.0291 5.87597 63.8208 5.22325C64.6212 4.5659 65.535 4.06506 66.5155 3.74619C67.5171 3.41415 68.5643 3.24569 69.618 3.24708C70.6747 3.24676 71.7256 3.40538 72.7365 3.71779C73.7148 4.01494 74.629 4.49679 75.4313 5.13804C76.2643 5.81302 76.9321 6.67459 77.3822 7.65526C77.8324 8.63593 78.0528 9.70908 78.026 10.7906V10.815ZM75.0354 10.8434C75.0585 10.1603 74.916 9.48193 74.6204 8.86781C74.3248 8.25369 73.8853 7.7226 73.3402 7.32115C72.8168 6.93507 72.227 6.65157 71.6011 6.48524C70.949 6.30869 70.2769 6.22002 69.602 6.22148C68.9262 6.22085 68.2534 6.31508 67.603 6.50147C66.9792 6.67247 66.394 6.96462 65.8798 7.36173C65.3367 7.78416 64.8967 8.32782 64.5939 8.95057C64.2911 9.57332 64.1336 10.2585 64.1336 10.9529C64.1336 11.6474 64.2911 12.3325 64.5939 12.9553C64.8967 13.578 65.3367 14.1217 65.8798 14.5441C66.4019 14.9389 66.9916 15.232 67.619 15.4085C68.2694 15.5948 68.9421 15.6891 69.618 15.6884C70.2876 15.688 70.9529 15.5798 71.5891 15.3679C72.2127 15.1611 72.7958 14.8452 73.3123 14.4346C73.8247 14.0236 74.2446 13.5062 74.5437 12.9169C74.8703 12.2762 75.039 11.5647 75.0354 10.8434Z" fill="white"/>
<path d="M81.7012 18.1638V3.74219H84.6398V15.2705H92.1802V18.1638H81.7012Z" fill="white"/>
<path d="M93.0039 3.74217H101.8C102.791 3.73203 103.777 3.88693 104.718 4.20071C105.566 4.48449 106.344 4.95098 106.997 5.5682C107.642 6.19225 108.143 6.9529 108.465 7.79596C108.828 8.76872 109.005 9.80321 108.984 10.8434C108.998 11.8781 108.826 12.9066 108.477 13.8787C108.163 14.746 107.668 15.5338 107.025 16.1876C106.376 16.8322 105.599 17.3301 104.746 17.6484C103.804 18.0024 102.805 18.1771 101.8 18.1638H96.0225V6.61106H94.2673L93.0039 3.74217ZM99.001 6.61106V15.2705H101.8C103.163 15.2705 104.223 14.8891 104.966 14.1262C105.71 13.3633 106.09 12.2921 106.09 10.9002C106.09 9.50837 105.714 8.42086 104.966 7.69451C104.219 6.96815 103.163 6.61106 101.8 6.61106H99.001Z" fill="white"/>
<path d="M59.5645 31.7738C59.5645 33.2238 59.1207 34.337 58.2331 35.1134C57.3455 35.8898 56.1061 36.2793 54.5149 36.282H45.791V21.8604H54.5149C55.0806 21.857 55.6425 21.9559 56.1741 22.1526C56.6805 22.3379 57.1463 22.6218 57.5454 22.9885C57.9378 23.3489 58.2558 23.7847 58.481 24.2708C58.7141 24.7902 58.8302 25.3558 58.8208 25.9264C58.8239 26.3889 58.7551 26.8491 58.6169 27.2898C58.4773 27.7213 58.226 28.1067 57.8892 28.4058C58.4357 28.729 58.8712 29.2149 59.1367 29.7976C59.4264 30.4144 59.5728 31.0905 59.5645 31.7738ZM48.6177 28.0162C49.2522 27.6388 49.9578 27.401 50.6887 27.3183C51.4769 27.2239 52.2699 27.1778 53.0635 27.1803H54.5149C55.4664 27.1803 55.9422 26.7623 55.9422 25.9264C55.9521 25.7558 55.9208 25.5854 55.8511 25.4298C55.7815 25.2742 55.6755 25.1383 55.5424 25.0337C55.2424 24.8198 54.8811 24.7128 54.5149 24.7293H48.6177V28.0162ZM48.6177 33.3888H54.5149C54.7948 33.3892 55.0743 33.3661 55.3505 33.3198C55.5969 33.28 55.834 33.1947 56.0501 33.0682C56.2547 32.9458 56.4252 32.7726 56.5459 32.565C56.6847 32.3053 56.7511 32.0121 56.7378 31.717C56.7549 31.4861 56.7161 31.2545 56.6248 31.0423C56.5335 30.8301 56.3925 30.6438 56.214 30.4996C55.7048 30.1839 55.1094 30.0418 54.5149 30.0938H53.0635C52.4039 30.0938 51.8641 30.0938 51.4283 30.1344C50.9925 30.175 50.6287 30.2074 50.3169 30.2602C50.0261 30.3124 49.7419 30.3967 49.4693 30.5118C49.2134 30.6254 48.9295 30.7634 48.6177 30.9176V33.3888Z" fill="white"/>
<path d="M70.0945 36.7283C69.1722 36.7364 68.2532 36.6148 67.3638 36.3672C66.5773 36.1487 65.8409 35.775 65.1968 35.2675C64.5758 34.7645 64.0869 34.1135 63.7735 33.3725C63.4155 32.5061 63.2425 31.5726 63.2657 30.6334V21.8604H66.0884V30.6334C66.0719 31.1587 66.1702 31.6811 66.3763 32.1632C66.5582 32.5612 66.8428 32.9019 67.1999 33.1493C67.5847 33.4132 68.0188 33.5941 68.4753 33.6809C69.5641 33.8865 70.6809 33.8865 71.7697 33.6809C72.226 33.5934 72.6599 33.4126 73.0451 33.1493C73.3933 32.8987 73.6694 32.5583 73.8447 32.1632C74.0521 31.6814 74.1518 31.159 74.1366 30.6334V21.8604H76.9592V30.6334C76.9825 31.5726 76.8094 32.5061 76.4515 33.3725C76.1449 34.1143 75.6629 34.7679 75.0481 35.2756C74.404 35.7831 73.6677 36.1568 72.8812 36.3753C71.9917 36.623 71.0727 36.7445 70.1505 36.7364L70.0945 36.7283Z" fill="white"/>
<path d="M82.3008 36.282V21.8604H85.2354V33.3887H92.7798V36.282H82.3008Z" fill="white"/>
<path d="M95.918 36.282V21.8604H98.8526V33.3887H106.397V36.282H95.918Z" fill="white"/>
</g>
<defs>
<clipPath id="clip0_538_138">
<rect width="108.985" height="39" fill="white" transform="translate(0 0.5)"/>
</clipPath>
</defs>
</svg>

<svg width="109" height="40" viewBox="0 0 109 40" fill="none" xmlns="http://www.w3.org/2000/svg"><g clip-path="url(#clip0_538_138)"><path d="M35.495.5H2.931C1.312.5 0 1.832 0 3.474v33.052C0 38.168 1.312 39.5 2.93 39.5h32.565c1.619 0 2.93-1.332 2.93-2.974V3.474c0-1.642-1.311-2.974-2.93-2.974z" fill="#fff"/><path fill-rule="evenodd" clip-rule="evenodd" d="M27.95 6.948c-1.678 1.818-3.334 1.513-5.517.876-.4-.142-.84-.276-1.255-.43-1.255-.462-2.595-1.05-3.91-1.282-4.062-.714-4.798 3.652-6.557 6.42-1.047 1.623-3.31 3.883-5.13 4.366-.735.195-1.175-.317-.631-.921.304-.316.627-.61.967-.885 1.3-1.083.94-2.216-.132-2.382a3.128 3.128 0 00-1.506.22c-.477.197-.9.508-1.232.908a3.265 3.265 0 00-.632 2.93c.264-.852 1.383-1.116 1.671-1.968a1.012 1.012 0 00-.312-1.108c1.747-1.132 2.671-.17 2.08.515-.424.491-1.248.995-1.736 1.591-1.063 1.299.264 3.011 2.57 1.964-.065.427-.077.86-.035 1.29a3.978 3.978 0 01-.274 2.036 3.902 3.902 0 01-1.25 1.616 7.023 7.023 0 01-.36 4.083 3.284 3.284 0 001.28 2.029c.547-1.596.771-3.286.66-4.971 1.843-.674 4.754-1.794 5.034-4.058.095-.065.227-.187.263-.215a18.49 18.49 0 013.667-2.325 3.276 3.276 0 01-.624-.662c1.247.508 3.998-.718 5.098-1.193.175.905.335 1.806-.604 2.28l-.048.053a2.323 2.323 0 000 1.758l.104-.065c1.347-.812 2.359-1.555 2.13-3.316l-.147-3.035-.4-.406c-.403.11-.818.168-1.235.175a9.935 9.935 0 001.307-.463c.7.763 1.2 1.307 1.563 2.338.833.148 1.69.037 2.46-.321l-.429-4.464c1.424-.267 2.903-1.205 3.103-2.978zm-4.041 6.96a6.096 6.096 0 00-1.384-2.922 4 4 0 01.172 1.298c-.687-1.266-2.187-2.216-2.135-3.567a1.755 1.755 0 00-.372 1.299 4.82 4.82 0 01-3.31-.406c.065.44.236.858.496 1.217a1.996 1.996 0 01-.986-.629 2.044 2.044 0 01-.474-1.08c-.543 1.758.7 3.478 2.072 4.107a4.559 4.559 0 002.826.256c-1.795 1.262-5.43 2.719-7.376.166-.014.675.16 1.34.5 1.92a12.061 12.061 0 00-2.907 2.114 3.324 3.324 0 00-1.008-.93c1.028 2.03-.108 3.738-.711 4.375.233-.528.35-1.101.344-1.68-.46 1.31-2.12 2.597-3.275 2.995.844-.812 1.136-1.595 1.1-2.893 0-.678-.14-1.413.104-2.066.203-.487.509-.923.895-1.278a14.128 14.128 0 002.99-3.332 5.65 5.65 0 01-.027.938c1.2-1.895 1.323-5.004 3.43-6.469a2.945 2.945 0 012.275-.405c.881.182 1.745.445 2.579.787l.216.081c.331.13.66.26.98.377.419.155.85.297 1.279.439h.027l.244.069c.165.307.393.575.67.786.275.21.592.357.93.431l.375 3.908c-.174.04-.35.072-.527.093h-.012z" fill="#B8860B"/><path d="M30.645 11.026l.855.852-11.702 11.443-2.647-2.706-.224-.223-.456.43L4.545 32.74l1.067.11 11.279-11.196 2.823 2.873.531-.48.24-.235 11.61-11.345.764.755 1.02-3.157-3.234.961zM17.436 28.329h-1.643v4.897h1.643V28.33zm3.285-2.804h-1.643v7.702h1.643v-7.702zm3.291-2.095H22.37v9.796h1.643v-9.795zm-9.867 6.81h-1.643v2.986h1.643V30.24zm13.158-10.242H25.66v13.229h1.643V19.998zm3.285-3.076h-1.643v16.309h1.643V16.922zm3.292-3.019h-1.644v18.95h1.644v-18.95z" fill="#B8860B"/><path d="M57.937 16.549a7.967 7.967 0 01-2.687 1.546 9.856 9.856 0 01-6.285 0 8.277 8.277 0 01-2.674-1.502 7.451 7.451 0 01-1.864-2.434 7.363 7.363 0 01-.7-3.27 7.157 7.157 0 01.712-3.247 7.286 7.286 0 011.904-2.394 8.247 8.247 0 012.686-1.477c1-.332 2.046-.5 3.099-.5 1.032-.002 2.06.152 3.046.46a8.52 8.52 0 012.663 1.35l-1.899 2.224a6.128 6.128 0 00-1.795-.848 7.169 7.169 0 00-2-.292 6.83 6.83 0 00-1.998.292 5.423 5.423 0 00-1.732.876 4.25 4.25 0 00-1.199 1.49 4.743 4.743 0 00-.452 2.13 4.552 4.552 0 00.464 2.118c.3.578.721 1.081 1.236 1.473a5.4 5.4 0 001.743.877 6.868 6.868 0 001.999.292 6.203 6.203 0 002.99-.75v-2.31H53.74l-1.2-2.702h5.398v6.598zm20.089-5.734a7.342 7.342 0 01-.716 3.287 7.662 7.662 0 01-1.879 2.434 8.253 8.253 0 01-2.694 1.534 9.705 9.705 0 01-6.277 0 8.213 8.213 0 01-2.68-1.501 7.423 7.423 0 01-1.87-2.435 7.417 7.417 0 01-.7-3.27 7.158 7.158 0 01.716-3.247 7.286 7.286 0 011.895-2.394 8.282 8.282 0 012.695-1.477 9.817 9.817 0 013.102-.499c1.057 0 2.108.158 3.119.47a8.076 8.076 0 012.694 1.421 6.993 6.993 0 011.951 2.517c.45.98.67 2.054.644 3.136v.024zm-2.99.028a4.227 4.227 0 00-.416-1.975 4.16 4.16 0 00-1.28-1.547 5.164 5.164 0 00-1.739-.836 7.586 7.586 0 00-1.999-.264c-.676 0-1.349.094-1.999.28a4.968 4.968 0 00-1.723.86 4.51 4.51 0 00-1.286 1.59 4.58 4.58 0 000 4.004 4.51 4.51 0 001.286 1.59 5.233 5.233 0 001.739.864c.65.186 1.323.28 1.999.28a6.288 6.288 0 001.971-.321 5.604 5.604 0 001.723-.933 4.633 4.633 0 001.232-1.518c.326-.64.495-1.352.491-2.074zm6.665 7.321V3.742h2.939v11.529h7.54v2.893H81.701zM93.004 3.742h8.796a8.935 8.935 0 012.918.459 6.16 6.16 0 012.279 1.367 6.154 6.154 0 011.468 2.228c.363.973.54 2.007.519 3.047a8.639 8.639 0 01-.507 3.036 6.397 6.397 0 01-1.452 2.309 6.42 6.42 0 01-2.279 1.46 8.07 8.07 0 01-2.946.516h-5.778V6.61h-1.755l-1.263-2.869zM99 6.612v8.659h2.799c1.363 0 2.423-.382 3.166-1.145.744-.763 1.124-1.834 1.124-3.226s-.376-2.48-1.124-3.205c-.747-.727-1.803-1.084-3.166-1.084H99zM59.565 31.774c0 1.45-.444 2.563-1.332 3.34-.887.776-2.127 1.165-3.718 1.168H45.79V21.86h8.724a4.7 4.7 0 011.66.293 4.12 4.12 0 011.37.835c.393.36.71.797.936 1.283.233.52.35 1.085.34 1.655a4.47 4.47 0 01-.204 1.364 2.54 2.54 0 01-.728 1.116c.547.323.982.809 1.248 1.392a4.52 4.52 0 01.428 1.976zm-10.947-3.758a5.193 5.193 0 012.07-.698c.789-.094 1.582-.14 2.375-.138h1.452c.951 0 1.427-.418 1.427-1.254a1.064 1.064 0 00-.4-.892c-.3-.214-.66-.321-1.027-.305h-5.897v3.287zm0 5.373h5.897c.28 0 .56-.023.835-.07.247-.039.484-.124.7-.25.205-.123.375-.296.496-.504.139-.26.205-.553.192-.848a1.439 1.439 0 00-.524-1.217 2.766 2.766 0 00-1.7-.406h-1.45c-.66 0-1.2 0-1.636.04-.435.041-.8.073-1.111.126-.29.052-.575.137-.848.252-.256.113-.54.251-.851.406v2.47zm21.476 3.339a9.858 9.858 0 01-2.73-.36 6.17 6.17 0 01-2.167-1.1 4.887 4.887 0 01-1.424-1.895 6.738 6.738 0 01-.507-2.74V21.86h2.822v8.773a3.605 3.605 0 00.288 1.53c.182.398.467.739.824.986.385.264.819.445 1.275.532a8.875 8.875 0 003.295 0c.456-.088.89-.268 1.275-.532.348-.25.624-.59.8-.986a3.606 3.606 0 00.292-1.53V21.86h2.822v8.773c.023.94-.15 1.873-.508 2.74a4.889 4.889 0 01-1.403 1.903 6.17 6.17 0 01-2.167 1.1 9.845 9.845 0 01-2.73.36l-.056-.008zm12.206-.446V21.86h2.935v11.53h7.545v2.893H82.3zm13.618 0V21.86h2.935v11.53h7.544v2.893H95.918z" fill="#fff"/></g><defs><clipPath id="clip0_538_138"><path fill="#fff" transform="translate(0 .5)" d="M0 0h108.985v39H0z"/></clipPath></defs></svg>
